assets/images/icons/globe.svg

<svg width="32" height="32" viewBox="0 0 32 32" fill="none" xmlns="http://www.w3.org/2000/svg">
<g clip-path="url(#clip0_242_7017)">
<path opacity="0.1" d="M0.223155 23.1618C-0.0589054 20.752 -0.098086 18.3874 0.248062 16.248C0.673696 13.6174 1.78493 10.6909 2.99894 8.07362C5.37163 2.95839 9.61911 1.16885 14.7912 0.362065C22.0007 -0.762522 31.9372 0.362091 32 9.08714C31.6383 12.2073 29.2517 20.8815 21.1951 21.5434C18.5313 21.7622 17.5348 24.4378 16.3612 27.5006C13.2729 35.5602 1.25575 31.9835 0.223155 23.1618Z" fill="#7FB51F"/>
<path d="M26.8748 16.75C26.8735 19.6338 25.7273 22.3991 23.6881 24.4382C21.6489 26.4774 18.8836 27.6236 15.9998 27.625C13.9411 27.6258 11.9244 27.042 10.1845 25.9414C8.44457 24.8409 7.05295 23.2689 6.17157 21.4083C5.29018 19.5478 4.95526 17.4752 5.20579 15.4317C5.45632 13.3882 6.28199 11.4579 7.58672 9.86538C8.60356 8.61591 9.88656 7.60926 11.3421 6.9189C12.7976 6.22855 14.3889 5.8719 15.9998 5.875C16.4513 5.87692 16.9021 5.90673 17.3498 5.96425C17.0242 6.39707 16.7731 6.88123 16.607 7.39675C16.4045 7.384 16.2027 7.375 15.9998 7.375C14.6836 7.37279 13.3817 7.64931 12.18 8.18635C10.9783 8.72339 9.90387 9.50879 9.02747 10.4909C10.0283 11.2199 12.0728 13.0098 11.4743 15.1053C11.3905 15.3489 11.358 15.6072 11.3788 15.8639C11.3995 16.1207 11.4732 16.3704 11.5951 16.5974C12.0946 17.4666 13.2856 17.7782 13.2976 17.7812C13.3906 17.8112 14.9423 18.3438 15.2828 19.5764C15.482 20.2971 15.2307 21.0722 14.537 21.8807C13.8693 22.7008 12.9863 23.3184 11.987 23.6642C11.4155 23.8866 11.0915 24.0145 10.9028 24.6145C12.877 25.8974 15.2621 26.3895 17.5828 25.9925C19.9035 25.5955 21.9894 24.3387 23.4248 22.4725C23.4698 22.414 23.5085 22.3525 23.552 22.2933C23.2861 20.7558 22.8057 20.5683 22.259 20.3583C21.9094 20.2472 21.589 20.0594 21.3215 19.8085C21.0033 19.4585 20.7276 19.0722 20.4998 18.6576C19.9917 17.8199 19.4157 16.8696 18.0998 16.2115L17.8257 16.075C15.8847 15.1124 14.7132 14.5311 15.8195 11.2203C15.9719 10.756 16.2071 10.3232 16.5136 9.94263C16.8455 11.3507 17.7796 13.156 19.3081 15.3329C19.5271 15.6442 19.8178 15.8982 20.1556 16.0735C20.4934 16.2489 20.8685 16.3404 21.2491 16.3404C21.6297 16.3404 22.0047 16.2489 22.3426 16.0735C22.6804 15.8982 22.9711 15.6442 23.1901 15.3329C24.08 14.1087 24.8463 12.7993 25.4776 11.4239C26.3935 13.0496 26.8747 14.884 26.8748 16.75ZM20.2295 14.6875C19.1191 13.1054 17.4998 10.5179 17.4998 8.875C17.4998 7.88044 17.8949 6.92661 18.5982 6.22335C19.3015 5.52009 20.2553 5.125 21.2498 5.125C22.2444 5.125 23.1982 5.52009 23.9015 6.22335C24.6048 6.92661 24.9998 7.88044 24.9998 8.875C24.9998 10.5179 23.3806 13.1054 22.2702 14.6875C22.155 14.8511 22.0022 14.9846 21.8246 15.0767C21.647 15.1688 21.4499 15.2169 21.2498 15.2169C21.0498 15.2169 20.8527 15.1688 20.6751 15.0767C20.4975 14.9846 20.3447 14.8511 20.2295 14.6875ZM21.2498 10.75C21.6207 10.75 21.9832 10.64 22.2915 10.434C22.5999 10.228 22.8402 9.93514 22.9821 9.59253C23.124 9.24992 23.1612 8.87292 23.0888 8.50921C23.0165 8.14549 22.8379 7.8114 22.5757 7.54917C22.3134 7.28695 21.9794 7.10837 21.6156 7.03603C21.2519 6.96368 20.8749 7.00081 20.5323 7.14273C20.1897 7.28464 19.8969 7.52496 19.6908 7.83331C19.4848 8.14165 19.3748 8.50416 19.3748 8.875C19.3748 9.37228 19.5724 9.84919 19.924 10.2008C20.2757 10.5525 20.7526 10.75 21.2498 10.75Z" fill="#7FB51F"/>
</g>
<defs>
<clipPath id="clip0_242_7017">
<rect width="32" height="32" fill="white"/>
</clipPath>
</defs>
</svg>

<svg xmlns="http://www.w3.org/2000/svg" width="32" height="32" fill="none"><g fill="#7FB51F" clip-path="url(#a)"><path d="M.223 23.162c-.282-2.41-.321-4.775.025-6.914.426-2.63 1.537-5.557 2.75-8.174C5.373 2.958 9.62 1.169 14.792.362 22.001-.763 31.937.362 32 9.087c-.362 3.12-2.748 11.795-10.805 12.456-2.664.22-3.66 2.895-4.834 5.958-3.088 8.06-15.105 4.482-16.138-4.34" opacity=".1"/><path d="M26.875 16.75a10.88 10.88 0 0 1-16.69 9.191A10.87 10.87 0 0 1 7.587 9.865a10.82 10.82 0 0 1 9.763-3.9 4.9 4.9 0 0 0-.743 1.432 9.32 9.32 0 0 0-7.58 3.094c1.001.729 3.046 2.519 2.447 4.614a1.87 1.87 0 0 0 .121 1.492c.5.87 1.69 1.181 1.703 1.184.093.03 1.644.563 1.985 1.795.199.721-.052 1.496-.746 2.305a5.7 5.7 0 0 1-2.55 1.783c-.572.223-.896.35-1.084.95a9.36 9.36 0 0 0 12.522-2.142c.045-.058.084-.12.127-.179-.266-1.537-.746-1.725-1.293-1.935a2.5 2.5 0 0 1-.937-.55 6 6 0 0 1-.822-1.15c-.508-.838-1.084-1.788-2.4-2.447l-.274-.136c-1.941-.963-3.113-1.544-2.007-4.855a4 4 0 0 1 .695-1.277c.332 1.408 1.266 3.213 2.794 5.39a2.372 2.372 0 0 0 3.882 0 23 23 0 0 0 2.288-3.91 10.85 10.85 0 0 1 1.397 5.327m-6.645-2.062c-1.11-1.583-2.73-4.17-2.73-5.813a3.75 3.75 0 0 1 7.5 0c0 1.643-1.62 4.23-2.73 5.813a1.247 1.247 0 0 1-2.04 0m1.02-3.938a1.875 1.875 0 1 0 0-3.75 1.875 1.875 0 0 0 0 3.75"/></g><defs><clipPath id="a"><path fill="#fff" d="M0 0h32v32H0z"/></clipPath></defs></svg>
